packages/assets/static/images/icons/farm.svg

<svg width="24" height="24" viewBox="0 0 24 24" xmlns="http://www.w3.org/2000/svg">
<path d="M12.8278 21.031C12.7176 21.1966 12.5462 21.3116 12.3513 21.3508C12.1563 21.3901 11.9537 21.3502 11.7881 21.2401C8.96266 19.3605 5.64356 18.3602 2.25 18.3657C2.05109 18.3657 1.86032 18.2867 1.71967 18.1461C1.57902 18.0054 1.5 17.8146 1.5 17.6157C1.5 17.4168 1.57902 17.226 1.71967 17.0854C1.86032 16.9447 2.05109 16.8657 2.25 16.8657C5.93918 16.8601 9.54731 17.9477 12.6188 19.9913C12.7843 20.1015 12.8994 20.2729 12.9386 20.4679C12.9778 20.6629 12.9379 20.8654 12.8278 21.031ZM2.25 13.8657C2.05109 13.8657 1.86032 13.9447 1.71967 14.0854C1.57902 14.226 1.5 14.4168 1.5 14.6157C1.5 14.8146 1.57902 15.0054 1.71967 15.1461C1.86032 15.2867 2.05109 15.3657 2.25 15.3657C7.5514 15.3536 12.6438 17.4324 16.4222 21.151C16.4919 21.2227 16.5752 21.2797 16.6673 21.3187C16.7594 21.3577 16.8583 21.3779 16.9583 21.3782C17.0583 21.3784 17.1573 21.3586 17.2495 21.32C17.3417 21.2814 17.4253 21.2247 17.4953 21.1533C17.5653 21.0819 17.6204 20.9973 17.6572 20.9043C17.694 20.8113 17.7119 20.7119 17.7097 20.612C17.7075 20.512 17.6854 20.4135 17.6446 20.3222C17.6038 20.2309 17.5452 20.1487 17.4722 20.0804C13.4141 16.0857 7.94435 13.8525 2.25 13.8657ZM21.75 15.3657C20.217 15.3647 18.6888 15.5374 17.1947 15.8804C17.7097 16.271 18.2097 16.6823 18.6947 17.1142C19.7047 16.9487 20.7265 16.8656 21.75 16.8657C21.9489 16.8657 22.1397 16.9447 22.2803 17.0854C22.421 17.226 22.5 17.4168 22.5 17.6157C22.5 17.8146 22.421 18.0054 22.2803 18.1461C22.1397 18.2867 21.9489 18.3657 21.75 18.3657C21.1875 18.3657 20.6316 18.3929 20.0766 18.4463C20.5966 18.9882 21.0947 19.5551 21.5709 20.147C21.6362 20.2234 21.6854 20.3121 21.7157 20.4079C21.746 20.5037 21.7567 20.6046 21.7473 20.7046C21.7378 20.8046 21.7083 20.9017 21.6606 20.9901C21.6129 21.0785 21.548 21.1565 21.4696 21.2193C21.3912 21.2821 21.3009 21.3285 21.2043 21.3558C21.1076 21.3831 21.0064 21.3907 20.9067 21.3781C20.807 21.3655 20.7109 21.3331 20.624 21.2826C20.5371 21.2322 20.4613 21.1648 20.4009 21.0845C18.2271 18.3585 15.4657 16.1585 12.3228 14.6489C9.1799 13.1392 5.73666 12.3587 2.25 12.3657C2.05109 12.3657 1.86032 12.2867 1.71967 12.1461C1.57902 12.0054 1.5 11.8146 1.5 11.6157C1.5 11.4168 1.57902 11.226 1.71967 11.0854C1.86032 10.9447 2.05109 10.8657 2.25 10.8657C3.7593 10.866 5.26547 11.0031 6.75 11.2754V7.86572C6.75 7.74929 6.77711 7.63445 6.82918 7.53031C6.88125 7.42617 6.95685 7.33558 7.05 7.26572L13.05 2.76572C13.1798 2.66836 13.3377 2.61572 13.5 2.61572C13.6623 2.61572 13.8202 2.66836 13.95 2.76572L19.95 7.26572C20.0431 7.33558 20.1187 7.42617 20.1708 7.53031C20.2229 7.63445 20.25 7.74929 20.25 7.86572V10.9117C20.7478 10.8826 21.2475 10.8657 21.75 10.8657C21.9489 10.8657 22.1397 10.9447 22.2803 11.0854C22.421 11.226 22.5 11.4168 22.5 11.6157C22.5 11.8146 22.421 12.0054 22.2803 12.1461C22.1397 12.2867 21.9489 12.3657 21.75 12.3657C19.0567 12.3606 16.3833 12.8267 13.8506 13.7429C14.4406 14.0554 15.0175 14.3923 15.5812 14.7535C17.5843 14.1633 19.6618 13.8643 21.75 13.8657C21.9489 13.8657 22.1397 13.9447 22.2803 14.0854C22.421 14.226 22.5 14.4168 22.5 14.6157C22.5 14.8146 22.421 15.0054 22.2803 15.1461C22.1397 15.2867 21.9489 15.3657 21.75 15.3657ZM11.25 8.61572H15.75C15.9489 8.61572 16.1397 8.69474 16.2803 8.83539C16.421 8.97605 16.5 9.16681 16.5 9.36572V11.4226C17.2425 11.2626 17.9925 11.1376 18.75 11.0476V8.24072L13.5 4.30322L8.25 8.24072V11.5979C9.01188 11.7854 9.76188 12.0098 10.5 12.271V9.36572C10.5 9.16681 10.579 8.97605 10.7197 8.83539C10.8603 8.69474 11.0511 8.61572 11.25 8.61572ZM12.0066 12.8598C12.9805 12.4416 13.9804 12.0868 15 11.7976V10.1157H12V12.857L12.0066 12.8598Z"/>
</svg>

<svg viewBox="0 0 24 24" xmlns="http://www.w3.org/2000/svg" aria-hidden="true" fill="currentColor"><path d="M12.828 21.031a.75.75 0 0 1-1.04.21 17.17 17.17 0 0 0-9.538-2.875.75.75 0 1 1 0-1.5 18.67 18.67 0 0 1 10.369 3.125.75.75 0 0 1 .209 1.04M2.25 13.866a.75.75 0 1 0 0 1.5 20.14 20.14 0 0 1 14.172 5.785.75.75 0 1 0 1.05-1.07A21.63 21.63 0 0 0 2.25 13.865m19.5 1.5a20.3 20.3 0 0 0-4.555.514q.773.586 1.5 1.234a19 19 0 0 1 3.055-.248.75.75 0 1 1 0 1.5q-.842 0-1.673.08.78.814 1.494 1.701a.75.75 0 1 1-1.17.938 23.16 23.16 0 0 0-18.151-8.72.75.75 0 1 1 0-1.5 25 25 0 0 1 4.5.41v-3.41a.75.75 0 0 1 .3-.6l6-4.5a.75.75 0 0 1 .9 0l6 4.5a.75.75 0 0 1 .3.6v3.047q.746-.046 1.5-.046a.75.75 0 1 1 0 1.5 23.1 23.1 0 0 0-7.9 1.377q.886.469 1.731 1.01c2.003-.59 4.08-.889 6.169-.887a.75.75 0 1 1 0 1.5m-10.5-6.75h4.5a.75.75 0 0 1 .75.75v2.057q1.113-.24 2.25-.375V8.24L13.5 4.303 8.25 8.241v3.357q1.143.281 2.25.673V9.366a.75.75 0 0 1 .75-.75m.757 4.244A25 25 0 0 1 15 11.798v-1.682h-3v2.741z"/></svg>
